icon-themes/sifr_svg/cmd/de/lc_numberformatdecimal.svg

<svg viewBox="0 0 24 24" xmlns="http://www.w3.org/2000/svg"><path d="m6 3c-2.198703 0-4 1.8012972-4 4v10c0 2.198703 1.801297 4 4 4s4-1.801297 4-4v-10c0-2.1987028-1.801297-4-4-4zm13 0c-2.198703 0-4 1.8012972-4 4v10c0 2.198703 1.801297 4 4 4s4-1.801297 4-4v-10c0-2.1987028-1.801297-4-4-4zm-13 2c1.125297 0 2 .8747028 2 2v10c0 1.125297-.874703 2-2 2s-2-.874703-2-2v-10c0-1.1252972.874703-2 2-2zm13 0c1.125297 0 2 .8747028 2 2v10c0 1.125297-.874703 2-2 2s-2-.874703-2-2v-10c0-1.1252972.874703-2 2-2zm-8 13v3h1c0 .549892.04745 1.092612-.230469 1.650391-.27792.557779-.769531 1.349609-.769531 1.349609h2c1.173325-1 1-2.172387 1-3v-3z" fill="#555753"/></svg>

<svg xmlns="http://www.w3.org/2000/svg" viewBox="0 0 24 24">
  <path
     style="fill:#555753"
     d="M 6 3 C 3.801297 3 2 4.8012972 2 7 L 2 17 C 2 19.198703 3.801297 21 6 21 C 8.198703 21 10 19.198703 10 17 L 10 7 C 10 4.8012972 8.198703 3 6 3 z M 19 3 C 16.801297 3 15 4.8012972 15 7 L 15 17 C 15 19.198703 16.801297 21 19 21 C 21.198703 21 23 19.198703 23 17 L 23 7 C 23 4.8012972 21.198703 3 19 3 z M 6 5 C 7.125297 5 8 5.8747028 8 7 L 8 17 C 8 18.125297 7.125297 19 6 19 C 4.874703 19 4 18.125297 4 17 L 4 7 C 4 5.8747028 4.874703 5 6 5 z M 19 5 C 20.125297 5 21 5.8747028 21 7 L 21 17 C 21 18.125297 20.125297 19 19 19 C 17.874703 19 17 18.125297 17 17 L 17 7 C 17 5.8747028 17.874703 5 19 5 z M 11 18 L 11 21 L 12 21 C 12 21.549892 12.04745 22.092612 11.769531 22.650391 C 11.491611 23.20817 11 24 11 24 L 13 24 C 14.173325 23 14 21.827613 14 21 L 14 18 L 11 18 z "
     />
</svg>
